X:1
T:Proč bychom se netěšili
T:Proč bychom se netěšili
T:Bedřich Smetana
C:Bedřich Smetana
%%score { ( 1 3 ) | ( 2 4 ) } { 5 | ( 6 7 8 ) }
L:1/8
M:2/4
K:G
V:1 treble nm="Klavír"
V:3 treble 
V:2 bass 
V:4 bass 
V:5 treble nm="Klavír"
V:6 bass 
V:7 bass 
V:8 bass 
V:1
 z4 | z4 | z4 | z4 |!ff! G2 A2 | B3 c | (BA) (AB) | (AG) (GA) | B2 c2 | d3 e | (dc) (cd) | %11
w: ||||Proč by-|chom se|ne- * tě- *|ši- * li, *|proč by-|chom se|ne- * tě- *|
 (cB) (Bd) | g2 f2 | f3 e | e d (d>e) | d c !tenuto!c2 | d2 c2 | c3 B | B A !tenuto!A2 | %19
w: ši- * li, *|když nám|Pán Bůh|zdra- ví dá, *|zdra- ví dá,|když nám|Pán Bůh|zdra- ví dá,|
 e d !tenuto!d2 | d2 c2 | c3 B | B A A2- | A4 |!ff![Q:1/4=120]"^Più mosso." G2 A2 | B2!<(! c2 | %26
w: zdra- ví dá,|když nám|Pán Bůh|zdra- ví dá.|_|Je- nom|ten je|
 d2!<)! g2 | d2 c2 | B2 d2 | B2 c2 | B A A2 | e d d2 | G2 A2 | B2!<(! c2 | d2!<)! g2 | d2 c2 | %36
w: v~pra- vdě|šťa- sten,|kdo ži-|vo- ta|u- ží- vá,|u- ží- vá,|je- nom|ten je|v~prav- dě|šťa- sten,|
 B2 d2 | B2 c2 | B A A2 | e d d2 | d2 c2 | c2 B2 | B A A2 | e d d2 | d2 c2 | c2 B2 | d4- | %47
w: kdo ži-|vo- ta|u- ží- vá,|u- ží- vá,|kdo ži-|vo- ta|u- ží- vá,|u- ží- vá,|kdo ži-|vo- ta|u-|
!<(! d2 d2!<)! |!ff! g4- | g2 z2 | z4 | z4 | z4 | z4 | z4 | z4 | z4 | z4 | z4 | z4 | z4 | z4 | z4 | %63
w: * ží-|vá!|_||||||||||||||
 z4 | z4 | z4 | z4 | z4 |] %68
w: |||||
V:2
 z4 | z4 | z4 | z4 | B,2 B,2 | D3 C | C2 C2 | B,2 B,2 | D2 D2 | D3 D | D2 D2 | D2 D2 | G2 G2 | %13
 G3 G | E E !tenuto!E2 | E E !tenuto!E2 | E2 E2 | D3 D | C C !tenuto!C2 | B, D !tenuto!D2 | E2 E2 | %21
 D3 D | C C C2- | C4 | B,2 C2 | D2 C2 | B,2 =F2 | E2 E2 | D2 D2 | D2 D2 | D C C2 | B, D D2 | %32
 B,2 C2 | D2 C2 | B,2 =F2 | E2 E2 | D2 D2 | D2 D2 | D C C2 | B, D D2 | E2 E2 | D2 D2 | D C C2 | %43
 B, D D2 | E2 E2 | D2 D2 | D4- | D2 D2 | G4- | G2 z2 | z4 | z4 | z4 | z4 | z4 | z4 | z4 | z4 | z4 | %59
 z4 | z4 | z4 | z4 | z4 | z4 | z4 | z4 | z4 |] %68
V:3
 x4 | x4 | x4 | x4 | G2 A2 | G3 A | (GD) D2 | D2 D2 | G2 A2 | B3 c | (BA) (AB) | (AG) (GB) | %12
 d2 d2 | d3 c | c B (B>c) | B A A2 | B2 A2 | A3 G | G F F2 | c B B2 | B2 A2 | A3 G | G F F2- | F4 | %24
 G2 A2 | G2 G2 | G2 G2 | G2 G2 | G2 B2 | G2 G2 | F F F2 | c B B2 | G2 A2 | G2 G2 | G2 G2 | G2 G2 | %36
 G2 B2 | G2 G2 | F F F2 | c B B2 | B2 A2 | A2 G2 | F F F2 | c B B2 | B2 A2 | A2 G2 | d4- | d2 d2 | %48
 B4- | B2 z2 | x4 | x4 | x4 | x4 | x4 | x4 | x4 | x4 | x4 | x4 | x4 | x4 | x4 | x4 | x4 | x4 | x4 | %67
 x4 |] %68
V:4
 x4 | x4 | x4 | x4 | G,2 G,2 | G,3 G, | D,2 D,2 | G,2 G,2 | G,2 G,2 | G,3 G, | F,2 F,2 | G,2 G,2 | %12
 B,2 B,2 | C3 C | ^G, G, G,2 | A, A, A,2 | C,2 C,2 | D,3 D, | D, D, D,2 | G, G, G,2 | C,2 C,2 | %21
 D,3 D, | D, D, D,2- | D,4 | G,2 F,2 | =F,2 E,2 | =F,2 B,,2 | C,2 C,2 | D,2 D,2 | D,2 D,2 | %30
 D, D, D,2 | G, G, G,2 | G,2 F,2 | =F,2 E,2 | =F,2 B,,2 | C,2 C,2 | D,2 D,2 | D,2 D,2 | D, D, D,2 | %39
 G, G, G,2 | C,2 C,2 | D,2 D,2 | D, D, D,2 | G, G, G,2 | C,2 C,2 | D,2 D,2 | D,4- | D,2 D,2 | %48
 G,4- | G,2 z2 | x4 | x4 | x4 | x4 | x4 | x4 | x4 | x4 | x4 | x4 | x4 | x4 | x4 | x4 | x4 | x4 | %66
 x4 | x4 |] %68
V:5
"_cresc." [ce] z [cdf] z |!<(! [cdeg] z [c^de^g]!<)! z |!<(! [cdfa][cdfb] [cdfa][cdfb] | %3
 [cdfc'][dd'][ee'][ff']!<)! |!ff! .[gg']!>(! z!>)! !wedge![Ada] z | [Bgb]3 [cac'] | %6
 ([Bgb][Ada]) ([Ada][Bgb]) | ([Ada][GBg]) ([GBg][Ada]) | [Bgb] z [cac'] z | ([dbd']3 [ec'e']) | %10
 ([dbd'][cac']) ([cac'][dbd']) |!<(! ([cac'][Bgb]) ([Bgb][dbd'])!<)! | %12
!8va(! [gbg']!>(! z!>)! [fd'f'] z | ([fd'f']3 [ec'e']) | ([ec'e'][dbd']) ([dbd']>[ec'e']) | %15
 ([dbd'][cac']) [cac']2!8va)! | [dbd'] z [cac'] z | ([cac']3 [Bgb]) | ([Bgb][Ada]) [Ada]2 | %19
 ([ec'e'][dbd']) [dbd']2 | !wedge![dbd'] z !wedge![cac'] z | ([cac']3 [Bgb]) | %22
 ([Bgb][Afa]) ([Afa][Bgb]) | ([Bgb][Afa]) ([Afa][Bdb]) |!ff! [GBdg]2 [Acda]2 | %25
!<(! !wedge![Bdgb]2 !wedge![cgc']2!<)! |!8va(! !wedge![dgbd']2 !wedge![=fgd'g']2 | %27
 !wedge![dgd']2 !wedge![cegc']2 | !wedge![Bdgb]2 !wedge![dgbd']2 | ([Bgb]3 [cac']) | %30
 ([Bgb][Afa]) [Afa]2 | ([ec'e'][dbd']) [dbd']2!8va)! | !wedge![GBdg]2 !wedge![Acda]2 | %33
!<(!!8va(! !wedge![Bdgb]2 !wedge![cgc']2!<)! | !wedge![dgbd']2 !wedge![=fgd'g']2 | %35
 !wedge![dgd']2 !wedge![cegc']2 | !wedge![Bdgb]2 !wedge![dgbd']2 | ([Bgb]3 [cac']) | %38
 ([Bgb][Afa]) [Afa]2 | [ec'e'][dbd'] [dbd']2 | !wedge![dbd'] z !wedge![cac'] z | ([cac']3 [Bgb]) | %42
 ([Bgb][Afa]) [Afa]2 | ([ec'e'][dbd']) [dbd']2 | .[dbd'] z .[cac'] z | ([cac']3 [Bgb]) | %46
 ([Bgb][Afa]) [Afa][Bb] |!<(! [cc'][dd'][ee'][ff']!<)! |!ff! [gbg'] z [ad'a'] z | %49
 ([bg'b']3 [c'a'c'']) | ([bg'b'][ad'a']) ([ad'a'][bb']) | ([ad'a'][gg']) ([gbg']d')!8va)! | %52
 ([gb][da]) ([da][gb]) | ([da][Bg]) ([Bg][Gd]) |!>(! ([GB][DA]) ([DA][GB]) | %55
 ([DA][B,G]) ([B,G]D)!>)! |!p! D4- | D4- | D4- | D4 |!pp! z4 | z4 | z4 | z4 | z4 | z4 | z4 | z4 |] %68
V:6
 z [D,CD]2 [D,CD] | z [D,CD]2 [D,CD] | D,, [D,F,CD]2 [D,F,CD]- | %3
 [D,F,CD][D,F,CD] [D,F,CD][D,F,CD] | !wedge!G,, [D,G,D]2 [D,G,D] | G,, [D,G,D]2 [D,G,D] | %6
 [D,,D,] [D,F,CD]2 [D,F,CD] | G,, [D,G,D]2 [D,G,D] | G,, [D,G,D]2 [D,G,D] | G,, [D,G,D]2 [D,G,D] | %10
 F,, [D,CD]2 [D,CD] | G,, [D,G,D]2 [D,G,D] | B,, [D,G,D]2 [D,G,D] | C,!>(! [G,CE]2!>)! [G,CE] | %14
 !wedge!^G,, [E,B,E]2 [E,DE] | !wedge!A,, [E,A,CE]2 [E,A,CE] | C,, [E,A,C]2 [E,A,C] | %17
 D,, [D,G,B,]2 [D,G,B,] | D,, [D,F,C]2 [D,F,C] | G,, [D,G,B,]2 [D,G,B,] | C,, [E,A,C]2 [E,A,C] | %21
 D,, [D,G,B,]2 [D,G,B,] | D,, [D,F,C]2 [D,F,C] | [D,F,C] [D,F,C]2 [D,F,C] | %24
 !wedge![G,,G,]2 !wedge![F,,F,]2 | !wedge![=F,,=F,]2 !wedge![E,,E,]2 | %26
 !wedge![=F,,=F,]2 !wedge![B,,,B,,]2 | !wedge![C,,C,]2 !wedge![C,,C,]2 | %28
 !wedge![D,,D,]2 !wedge![D,,D,]2 | !wedge![D,,D,] [D,G,B,]2 [D,G,B,] | %30
 !wedge![D,,D,] [D,F,C]2 [D,F,C] | !wedge![G,,G,] [D,G,B,]2 [G,,G,] | %32
 !wedge![G,,G,]2 !wedge![F,,F,]2 | !wedge![=F,,=F,]2 !wedge![E,,E,]2 | %34
 !wedge![=F,,=F,]2 !wedge![B,,,B,,]2 | !wedge![C,,C,]2 !wedge![C,,C,]2 | %36
 !wedge![D,,D,]2 !wedge![D,,D,]2 | [D,,D,] [D,G,B,D]2 [D,G,B,D] | [D,,D,] [D,CD]2 [D,CD] | %39
 [G,,G,] [D,G,B,D]2 [D,G,B,D] | [C,,C,] [C,E,A,]2 [C,E,A,] | [D,,D,] [D,G,B,]2 [D,G,B,] | %42
 [D,,D,] [D,CD]2 [D,CD] | [G,,G,] [D,G,B,D]2 [D,G,B,D] | [C,,C,] [E,A,C]2 [E,A,C] | %45
 [D,,D,] [D,B,D]2 [D,B,D] | [D,,D,] [D,F,CD]2 [D,F,CD] | [D,F,CD][D,F,CD] [D,F,CD][D,F,CD] | %48
 [G,,G,] [D,G,D]2 [D,G,D] | [G,,G,] [D,G,D]2 [D,G,D] | [D,,D,] [D,F,CD]2 [D,F,CD] | %51
 [G,,G,] [D,B,D]2 [D,G,B,] | D,, [D,F,C]2 [D,F,C] | G,, [D,G,B,]2 [D,G,B,] | D,, [D,F,C]2 [D,F,C] | %55
 G,, [D,G,]2 [D,G,] | (B,[F,A,]) (A,[F,B,]) | (B,[F,A,]) (A,[F,B,]) | ([F,B,][F,A,]) (A,[F,B,]-) | %59
 ([F,B,][F,A,]) (A,[F,B,]) | (G,2 A,2 | [G,B,]4) | (G,2 A,2 | [G,B,]4-) | [G,B,]4- | [G,B,]4- | %66
 [G,B,]2 z2 | x4 |] %68
V:7
 D,,2 z2 | D,,2 z2 | x4 | x4 | x4 | x4 | x4 | x4 | x4 | x4 | x4 | x4 | x4 | x4 | x4 | x4 | x4 | %17
 x4 | x4 | x4 | x4 | x4 | x4 | x4 | x4 | x4 | x4 | x4 | x4 | x4 | x4 | x4 | x4 | x4 | x4 | x4 | %36
 x4 | x4 | x4 | x4 | x4 | x4 | x4 | x4 | x4 | x4 | x4 | x4 | x4 | x4 | x4 | x4 | x4 | x4 | x4 | %55
 x4 | D,, C,2 C, | D,, C,2 C,- | C, [C,D,]2 [C,D,]- | [C,D,] [C,D,]2 [C,D,] | B,,2 D,2 | z D,2 D, | %62
 B,,2 D,2 | z D,2 D, | z!>(! D,2 D,- | D, D,2!>)! D,- | D,!>(! D,2 D,- | D, D,2 D,!>)! |] %68
V:8
 x4 | x4 | x4 | x4 | x4 | x4 | x4 | x4 | x4 | x4 | x4 | x4 | x4 | x4 | x4 | x4 | x4 | x4 | x4 | %19
 x4 | x4 | x4 | x4 | x4 | x4 | x4 | x4 | x4 | x4 | x4 | x4 | x4 | x4 | x4 | x4 | x4 | x4 | x4 | %38
 x4 | x4 | x4 | x4 | x4 | x4 | x4 | x4 | x4 | x4 | x4 | x4 | x4 | x4 | x4 | x4 | x4 | x4 | x4 | %57
 x4 | x4 | x4 | G,,4- | G,,4 | G,,4- | G,,4 | G,,4 | G,,4 | x4 | x4 |] %68

